icons/src/scalable/default/status/weather-tornado-symbolic.svg

<svg version="1.1" viewBox="0 0 16 16" xmlns="http://www.w3.org/2000/svg">
 <path d="m1.5 1c-0.277 0-0.5 0.223-0.5 0.5s0.223 0.5 0.5 0.5h1c-0.277 0-0.5 0.223-0.5 0.5s0.223 0.5 0.5 0.5h1c-0.277 0-0.5 0.223-0.5 0.5s0.223 0.5 0.5 0.5h-1c-0.277 0-0.5 0.223-0.5 0.5s0.223 0.5 0.5 0.5h3c-0.277 0-0.5 0.223-0.5 0.5s0.223 0.5 0.5 0.5h-1c-0.277 0-0.5 0.223-0.5 0.5s0.223 0.5 0.5 0.5h1c-0.277 0-0.5 0.223-0.5 0.5s0.223 0.5 0.5 0.5h-1c-0.277 0-0.5 0.223-0.5 0.5s0.223 0.5 0.5 0.5h2c-0.277 0-0.5 0.223-0.5 0.5s0.223 0.5 0.5 0.5h-1c-0.277 0-0.5 0.223-0.5 0.5s0.223 0.5 0.5 0.5h1c-0.277 0-0.5 0.223-0.5 0.5s0.223 0.5 0.5 0.5c-0.277 0-0.5 0.223-0.5 0.5s0.223 0.5 0.5 0.5h-1c-0.277 0-0.5 0.223-0.5 0.5s0.223 0.5 0.5 0.5h1c-0.277 0-0.5 0.223-0.5 0.5s0.223 0.5 0.5 0.5h1c0.277 0 0.5-0.223 0.5-0.5s-0.223-0.5-0.5-0.5c0.277 0 0.5-0.223 0.5-0.5s-0.223-0.5-0.5-0.5h1c0.277 0 0.5-0.223 0.5-0.5s-0.223-0.5-0.5-0.5h1c0.277 0 0.5-0.223 0.5-0.5s-0.223-0.5-0.5-0.5h-1c0.277 0 0.5-0.223 0.5-0.5s-0.223-0.5-0.5-0.5h1c0.277 0 0.5-0.223 0.5-0.5s-0.223-0.5-0.5-0.5h-1c0.277 0 0.5-0.223 0.5-0.5s-0.223-0.5-0.5-0.5h1c0.277 0 0.5-0.223 0.5-0.5s-0.223-0.5-0.5-0.5h1c0.277 0 0.5-0.223 0.5-0.5s-0.223-0.5-0.5-0.5h1c0.277 0 0.5-0.223 0.5-0.5s-0.223-0.5-0.5-0.5h1c0.277 0 0.5-0.223 0.5-0.5s-0.223-0.5-0.5-0.5h1c0.277 0 0.5-0.223 0.5-0.5s-0.223-0.5-0.5-0.5h-1c0.277 0 0.5-0.223 0.5-0.5s-0.223-0.5-0.5-0.5h-1c0.277 0 0.5-0.223 0.5-0.5s-0.223-0.5-0.5-0.5h-10z" fill="#bebebe" fill-rule="evenodd" stroke-linecap="round" stroke-width="2"/>
</svg>

<?xml version="1.0" encoding="UTF-8" standalone="no"?>
<svg
   xmlns:dc="http://purl.org/dc/elements/1.1/"
   xmlns:cc="http://creativecommons.org/ns#"
   xmlns:rdf="http://www.w3.org/1999/02/22-rdf-syntax-ns#"
   xmlns:svg="http://www.w3.org/2000/svg"
   xmlns="http://www.w3.org/2000/svg"
   xmlns:sodipodi="http://sodipodi.sourceforge.net/DTD/sodipodi-0.dtd"
   xmlns:inkscape="http://www.inkscape.org/namespaces/inkscape"
   width="16"
   height="16"
   version="1.1"
   id="svg4"
   sodipodi:docname="weather-tornado-symbolic.svg"
   inkscape:version="1.0.2 (e86c870879, 2021-01-15)">
  <metadata
     id="metadata10">
    <rdf:RDF>
      <cc:Work
         rdf:about="">
        <dc:format>image/svg+xml</dc:format>
        <dc:type
           rdf:resource="http://purl.org/dc/dcmitype/StillImage" />
      </cc:Work>
    </rdf:RDF>
  </metadata>
  <defs
     id="defs8" />
  <sodipodi:namedview
     pagecolor="#ffffff"
     bordercolor="#666666"
     borderopacity="1"
     objecttolerance="10"
     gridtolerance="10"
     guidetolerance="10"
     inkscape:pageopacity="0"
     inkscape:pageshadow="2"
     inkscape:window-width="1920"
     inkscape:window-height="1016"
     id="namedview6"
     showgrid="true"
     inkscape:zoom="19.445436"
     inkscape:cx="0.60144527"
     inkscape:cy="4.3764989"
     inkscape:window-x="0"
     inkscape:window-y="27"
     inkscape:window-maximized="1"
     inkscape:current-layer="svg4">
    <inkscape:grid
       type="xygrid"
       id="grid835" />
  </sodipodi:namedview>
  <path
     id="rect837"
     style="opacity:1;fill:#bebebe;fill-rule:evenodd;stroke-width:2;stroke-linecap:round"
     d="M 1.5 1 C 1.223 1 1 1.223 1 1.5 C 1 1.777 1.223 2 1.5 2 L 2.5 2 C 2.223 2 2 2.223 2 2.5 C 2 2.777 2.223 3 2.5 3 L 3.5 3 C 3.223 3 3 3.223 3 3.5 C 3 3.777 3.223 4 3.5 4 L 2.5 4 C 2.223 4 2 4.223 2 4.5 C 2 4.777 2.223 5 2.5 5 L 5.5 5 C 5.223 5 5 5.223 5 5.5 C 5 5.777 5.223 6 5.5 6 L 4.5 6 C 4.223 6 4 6.223 4 6.5 C 4 6.777 4.223 7 4.5 7 L 5.5 7 C 5.223 7 5 7.223 5 7.5 C 5 7.777 5.223 8 5.5 8 L 4.5 8 C 4.223 8 4 8.223 4 8.5 C 4 8.777 4.223 9 4.5 9 L 6.5 9 C 6.223 9 6 9.223 6 9.5 C 6 9.777 6.223 10 6.5 10 L 5.5 10 C 5.223 10 5 10.223 5 10.5 C 5 10.777 5.223 11 5.5 11 L 6.5 11 C 6.223 11 6 11.223 6 11.5 C 6 11.777 6.223 12 6.5 12 C 6.223 12 6 12.223 6 12.5 C 6 12.777 6.223 13 6.5 13 L 5.5 13 C 5.223 13 5 13.223 5 13.5 C 5 13.777 5.223 14 5.5 14 L 6.5 14 C 6.223 14 6 14.223 6 14.5 C 6 14.777 6.223 15 6.5 15 L 7.5 15 C 7.777 15 8 14.777 8 14.5 C 8 14.223 7.777 14 7.5 14 C 7.777 14 8 13.777 8 13.5 C 8 13.223 7.777 13 7.5 13 L 8.5 13 C 8.777 13 9 12.777 9 12.5 C 9 12.223 8.777 12 8.5 12 L 9.5 12 C 9.777 12 10 11.777 10 11.5 C 10 11.223 9.777 11 9.5 11 L 8.5 11 C 8.777 11 9 10.777 9 10.5 C 9 10.223 8.777 10 8.5 10 L 9.5 10 C 9.777 10 10 9.777 10 9.5 C 10 9.223 9.777 9 9.5 9 L 8.5 9 C 8.777 9 9 8.777 9 8.5 C 9 8.223 8.777 8 8.5 8 L 9.5 8 C 9.777 8 10 7.777 10 7.5 C 10 7.223 9.777 7 9.5 7 L 10.5 7 C 10.777 7 11 6.777 11 6.5 C 11 6.223 10.777 6 10.5 6 L 11.5 6 C 11.777 6 12 5.777 12 5.5 C 12 5.223 11.777 5 11.5 5 L 12.5 5 C 12.777 5 13 4.777 13 4.5 C 13 4.223 12.777 4 12.5 4 L 13.5 4 C 13.777 4 14 3.777 14 3.5 C 14 3.223 13.777 3 13.5 3 L 12.5 3 C 12.777 3 13 2.777 13 2.5 C 13 2.223 12.777 2 12.5 2 L 11.5 2 C 11.777 2 12 1.777 12 1.5 C 12 1.223 11.777 1 11.5 1 L 1.5 1 z " />
</svg>
